docs/img/ico-history-active.svg

<?xml version="1.0" encoding="utf-8"?>
<svg width="22px" height="22px" viewbox="0 0 22 22" version="1.1" xmlns:xlink="http://www.w3.org/1999/xlink" xmlns="http://www.w3.org/2000/svg">
  <defs>
    <path d="M0 0L21.0405 0L21.0405 21.0444L0 21.0444L0 0Z" id="path_1" />
    <clipPath id="mask_1">
      <use xlink:href="#path_1" />
    </clipPath>
  </defs>
  <g id="Group-6" transform="translate(0.19995117 0.19995117)">
    <g id="Group-3">
      <path d="M0 0L21.0405 0L21.0405 21.0444L0 21.0444L0 0Z" id="Clip-2" fill="none" fill-rule="evenodd" stroke="none" />
      <g clip-path="url(#mask_1)">
        <path d="M3.50953 5.2574C3.88268 5.2574 4.20788 5.2574 4.53316 5.2574C5.04336 5.2575 5.55365 5.26035 6.06395 5.25722C6.83552 5.25242 7.21789 6.02012 6.86116 6.5959C6.6768 6.89351 6.39264 7.01221 6.04781 7.01175C4.63378 7.00972 3.21976 7.01092 1.80582 7.01092C1.7812 7.01092 1.75657 7.01092 1.73204 7.0099C1.22387 6.98814 0.869165 6.63048 0.867874 6.12037C0.864277 4.66955 0.864277 3.21863 0.867782 1.76781C0.868981 1.25586 1.23651 0.883904 1.72725 0.880953C2.22085 0.878001 2.60137 1.24257 2.61014 1.74982C2.62019 2.33344 2.61244 2.91733 2.61244 3.53617C2.66741 3.49061 2.70458 3.46645 2.73354 3.43463C4.089 1.94811 5.73682 0.930663 7.67073 0.385232C8.83934 0.0557047 10.0328 -0.0581035 11.247 0.0272987C13.215 0.165639 15.0072 0.802375 16.6069 1.94728C18.6671 3.42181 20.0419 5.39086 20.6786 7.8464C21.3718 10.5198 21.0728 13.0976 19.7516 15.5233C18.2982 18.1919 16.0774 19.9427 13.1332 20.6877C9.81123 21.5283 6.7491 20.8787 4.03421 18.7878C1.8773 17.1264 0.599217 14.9069 0.143062 12.225C0.0507423 11.6823 0.0184628 11.1262 0.000570786 10.5749C-0.0200881 9.93673 0.523222 9.51626 1.11366 9.67702C1.50756 9.78418 1.75344 10.1251 1.75169 10.6033C1.74892 11.3714 1.86337 12.1235 2.07052 12.8585C2.54631 14.5464 3.44101 15.9755 4.76982 17.1268C6.03167 18.22 7.48332 18.927 9.13575 19.1647C12.0577 19.585 14.602 18.766 16.7121 16.6994C18.0999 15.3401 18.9397 13.6677 19.1863 11.7435C19.5555 8.86459 18.7226 6.35066 16.6684 4.28874C15.2228 2.83773 13.4534 1.98961 11.4066 1.81051C8.23193 1.53272 5.62993 2.653 3.61172 5.12211C3.5859 5.15365 3.56238 5.18722 3.50953 5.2574" id="Fill-1" fill="#FFFFFF" fill-rule="evenodd" stroke="#FFFFFF" stroke-width="0.4" />
      </g>
    </g>
    <path d="M1.7556 5.24582L2.00543 5.24582C3.05792 5.24582 4.11031 5.24453 5.1628 5.24656C5.49778 5.2473 5.79618 5.33574 5.99558 5.63177C6.33646 6.13813 6.06189 6.82884 5.46046 6.96796C5.3417 6.99542 5.21655 7.00565 5.09427 7.00592C3.74033 7.00841 2.3863 7.00859 1.03227 7.00684C0.507965 7.0062 0.172066 6.78978 0.0447073 6.36883C0.0149686 6.2707 0.00250057 6.16374 0.00231586 6.06073C-0.000177752 4.34781 -0.0009166 2.63488 0.0013923 0.921857C0.00222351 0.273243 0.539551 -0.138129 1.14596 0.0428198C1.48657 0.144442 1.67535 0.385921 1.73815 0.727549C1.7557 0.823275 1.75486 0.923146 1.75496 1.02118C1.75588 2.34733 1.7556 3.67349 1.7556 4.99964L1.7556 5.24582Z" transform="translate(9.599976 4.4362793)" id="Fill-4" fill="#FFFFFF" fill-rule="evenodd" stroke="#FFFFFF" stroke-width="0.4" />
  </g>
</svg>

<svg width="22" height="22" xmlns:xlink="http://www.w3.org/1999/xlink" xmlns="http://www.w3.org/2000/svg"><defs><clipPath id="b"><use xlink:href="#a"/></clipPath><path d="M0 0h21.04v21.044H0V0z" id="a"/></defs><path d="M.2.2h21.04v21.044H.2V.2z" fill="none"/><g clip-path="url(#b)" transform="translate(.2 .2)"><path d="M3.51 5.257h1.023c.51 0 1.02.003 1.53 0 .773-.005 1.155.763.798 1.339-.184.298-.468.416-.813.416C4.634 7.01 3.22 7.01 1.806 7.01l-.074-.001c-.508-.022-.863-.38-.864-.89-.004-1.45-.004-2.901 0-4.352.001-.512.369-.884.86-.887a.859.859 0 01.882.869c.01.583.002 1.167.002 1.786.055-.045.093-.07.122-.101A10.369 10.369 0 017.67.385a10.394 10.394 0 013.576-.358c1.968.139 3.76.775 5.36 1.92 2.06 1.475 3.435 3.444 4.072 5.9.693 2.673.394 5.25-.927 7.676-1.454 2.669-3.675 4.42-6.619 5.165-3.322.84-6.384.19-9.099-1.9C1.877 17.126.6 14.907.144 12.225A12.223 12.223 0 010 10.575c-.021-.638.522-1.059 1.113-.898.394.107.64.448.638.926-.003.768.111 1.52.319 2.255a8.625 8.625 0 002.699 4.269c1.262 1.093 2.713 1.8 4.366 2.038 2.922.42 5.466-.399 7.576-2.466 1.388-1.359 2.228-3.031 2.474-4.956.37-2.878-.463-5.392-2.518-7.454-1.445-1.451-3.215-2.3-5.261-2.478-3.175-.278-5.777.842-7.795 3.311-.026.032-.05.065-.102.135" fill="#FFF" fill-rule="evenodd" stroke="#FFF" stroke-width=".4"/></g><path d="M11.556 9.882h3.407c.335.002.633.09.833.386a.872.872 0 01-.536 1.336 1.654 1.654 0 01-.366.038c-1.354.003-2.708.003-4.062.001-.524 0-.86-.217-.987-.638a1.082 1.082 0 01-.043-.308c-.002-1.713-.003-3.426 0-5.139 0-.649.537-1.06 1.144-.879.34.102.53.343.592.685.018.096.017.195.017.293v4.225z" fill="#FFF" fill-rule="evenodd" stroke="#FFF" stroke-width=".4"/></svg>
